app/dist/common/images/bm-technologies.svg

<svg height="18" viewBox="0 0 18 18" width="18" xmlns="http://www.w3.org/2000/svg" xmlns:xlink="http://www.w3.org/1999/xlink"><linearGradient id="a" gradientUnits="userSpaceOnUse" x1="3.35" x2="21.9" y1="3.12" y2="24.43"><stop offset="0" stop-color="#1a1e21"/><stop offset="1" stop-color="#06060a"/></linearGradient><path d="m0 0h18v18h-18z" fill="url(#a)"/><path d="m6.14 14 2.14-2.14-2.14-2.14-2.14 2.14z" fill="#fc3d45"/><path d="m6.14 8.28 2.14-2.14-2.14-2.14-2.14 2.14z" fill="#fdb300"/><path d="m11.86 8.28 2.14-2.14-2.14-2.14-2.14 2.14z" fill="#00cce5"/><path d="m11.86 14 2.14-2.14-2.14-2.14-2.14 2.14z" fill="#e9238a"/><path d="m9 11.14 2.14-2.14-2.14-2.14-2.14 2.14z" fill="#00b47e"/></svg>

<!-- by TradingView --><svg xmlns="http://www.w3.org/2000/svg" width="18" height="18" viewBox="0 0 18 18"><path fill="url(#ah2xok45a)" d="M0 0h18v18H0z"/><path d="M6.14 14l2.14-2.14-2.14-2.14L4 11.86 6.14 14z" fill="#FC3D45"/><path d="M6.14 8.28l2.14-2.14L6.14 4 4 6.14l2.14 2.14z" fill="#FDB300"/><path d="M11.86 8.28L14 6.14 11.86 4 9.72 6.14l2.14 2.14z" fill="#00CCE5"/><path d="M11.86 14L14 11.86l-2.14-2.14-2.14 2.14L11.86 14z" fill="#E9238A"/><path d="M9 11.14L11.14 9 9 6.86 6.86 9 9 11.14z" fill="#00B47E"/><defs><linearGradient id="ah2xok45a" x1="3.35" y1="3.12" x2="21.9" y2="24.43" gradientUnits="userSpaceOnUse"><stop stop-color="#1A1E21"/><stop offset="1" stop-color="#06060A"/></linearGradient></defs></svg>
